X: 16
T: All the Fleas (Alla Lopper)
M: 3/4
L: 1/8
K: G
|: "G"B>c d2 e>d | ((3BcB) G4 | B>c d2 e>d| "D7"((3cBc) A4| 
A>B c2 d2 | f>e d3 (g|f)>e d>c A>F| "G"G2G3z:|
|: "C"b>g e3 (g| "G"b)>g d3 (g | "D7"f)>e d>c B>A | "G"G>G B>d ((3fef)|  
"C"b>g e3 (g| "G"b)>g d3 (g|"D7"f)>e d>c A>F| "G"G2G3z:|
